packages/foundations/assets/icons/functional/images/maps/map_28.svg

<svg width="28" height="28" viewBox="0 0 28 28" fill="none" xmlns="http://www.w3.org/2000/svg">
<g clip-path="url(#clip0_186_70)">
<path fill-rule="evenodd" clip-rule="evenodd" d="M25.5391 3.9375C25.9492 3.9375 26.25 4.23832 26.25 4.70312V19.6875C26.25 19.9883 26.1176 20.2981 25.8398 20.4258L18.3477 23.871C18.1584 23.9581 17.9922 24.0078 17.8008 24.0078C17.6367 24.0078 17.4433 23.9577 17.254 23.871L10.1992 20.6446L3.11719 23.8984C2.9505 23.975 2.6523 24.0625 2.48833 24.0625C2.2148 24.0625 1.75 23.7617 1.75 23.1602V8.3125C1.75 8.01167 1.88283 7.70289 2.1602 7.57417L9.40625 4.21094C9.70594 4.07181 9.95312 4.01958 10.2266 4.01958C10.5 4.01958 10.8025 4.07059 11.1016 4.21094L17.8008 7.35542L24.746 4.12895C24.8907 4.06175 25.2109 3.9375 25.5391 3.9375ZM9.32417 6.17969L3.5 8.85938V21.8203L9.32417 19.1133V6.17969ZM11.0742 6.17969V19.1133L16.9258 21.8203V8.88667L11.0742 6.17969ZM24.5 6.17969L18.6758 8.85938V21.8203L24.5 19.1133V6.17969Z" fill="#1A1C1F"/>
</g>
<defs>
<clipPath id="clip0_186_70">
<rect width="28" height="28" fill="white"/>
</clipPath>
</defs>
</svg>

<svg xmlns="http://www.w3.org/2000/svg" width="28" height="28" fill="none"><g clip-path="url(#a)"><path fill="#1A1C1F" fill-rule="evenodd" d="M25.54 3.938c.41 0 .71.3.71.765v14.985c0 .3-.132.61-.41.738l-7.492 3.445c-.19.087-.356.137-.547.137-.164 0-.358-.05-.547-.137l-7.055-3.226-7.082 3.253c-.167.077-.465.165-.629.165-.273 0-.738-.301-.738-.903V8.313c0-.301.133-.61.41-.739l7.246-3.363c.3-.14.547-.191.82-.191.274 0 .576.05.876.19L17.8 7.356l6.945-3.226c.145-.067.465-.191.793-.191M9.323 6.18 3.5 8.86v12.96l5.824-2.707zm1.75 0v12.933l5.852 2.707V8.887zm13.426 0-5.824 2.68v12.96l5.824-2.707z" clip-rule="evenodd"/></g><defs><clipPath id="a"><path fill="#fff" d="M0 0h28v28H0z"/></clipPath></defs></svg>
